!!!OTL: Kleiner Mann und gro&szlig;e Frau (192a), S. 418
!!!id: T0371
**kern
*clefG2
*k[b-]
*F:
{8c
=1
8.f
16f
8a
=2
8.cc
16cc
8a
=3
4cc
8dd
=4
4cc}
=5
{8c
=6
8.f
16f
8a
=7
8.cc
16cc
8a
=8
4cc
8dd
=9
4cc}
=10
{16cc
16cc
=11
8.ff
16ff
8ff
=12
8dd
8b-
8b-}
=13
{16dd
16dd
16dd
16dd
16dd
16dd
=14
8cc
8cc
8a
=15
8b-
8g
8cc
=16
8f}
8r
==
*-
!!!minrhy: 16
!!!meters: 3/8 ]  ZZ[4
!!!cut: Kleiner Mann und gro&szlig;e Frau (192a), S. 418
!!!reg: Luxemburg
!!!trd: Singendes Volk, Esch-Alzette, 1937 posth.
!!!rhy1: X_  X_.XX_  X_.  X_.XX_  X__X_  X__
!!!rhy2: X_  X_.XX_  X_.XX_  X__X_  X__
!!!key: T0371  16  F 3/8 ]  ZZ[4
!!!mod: SECHSTONSKALA DUR ?]  AMBITUS[11
!!!kad: 5541
!!!akz: 15555_1555_+16_6541_
!!!fot: 'a__aw_b__c__
!!!for: 'a__b__c__d__
!!!fok: '/__/__^d_\__
!! PHRAS[VORWIEGEND AUFTAKTIG]
!!!fkt: Hochzeits-, Ehestandslied
!!!bem: StraPen, fff Witry, 10.1.1933
!! THILL; Mathias
!! PR[56] 2K[3] 2G[6] 3K[0] 3G[0] 4A[6] 4Ü[0] 5A[0] 6K[3] 6G[0]
!! 7K[0] 7G[0] 8A[0] MEHR[0] SI[18] ABS[34] SR[9] SP[9]
!! ST[11] 2k[6] 2g[15] 3k[0] 3g[0] 4d[0] 4ü[0] 5d[0] 6k[6] 6g[0]
!! 7k[0] 7g[0] 8d[0] mehr[0] si[26] dm[-8] sr[21] sp[6]
!! 1F[33] 2F[58] 3F[8] 4F[0] LF[0] 2P[0] 3P[0] 4P[0] TRI[0] DF[3] AB[36]
!! TF[0] U3K[0] U3[0] U4[0] U4Ü[0] U5[0] U6K[0] U6[0] U7K[0] U7[0]
!! N1[0] N2K[0] N2[6] N3K[0] N3[17] N4[6] N4Ü[0] N5[31] N6K[0] N6[17]
!!!n7k: 0] N7[0] O1[23] O2K[0] O2[0] O3K[0] O3[0] HÖ[0
!!!RNB: symbol: &szlig; = sz ligature (UTF-8: ÃŸ)
